src/asset/24px/send-plane.svg

<svg width="24" height="24" viewBox="0 0 24 24" fill="none" xmlns="http://www.w3.org/2000/svg">
<path fill-rule="evenodd" clip-rule="evenodd" d="M3.00263 10.7022C2.95894 9.84805 3.46317 9.06067 4.25724 8.74304L18.2572 3.14304C19.0001 2.84591 19.8485 3.02006 20.4142 3.58578C20.98 4.15151 21.1541 4.99994 20.857 5.74278L15.257 19.7428C14.9393 20.5368 14.152 21.0411 13.2979 20.9974C12.4437 20.9537 11.7119 20.3718 11.477 19.5494L9.91555 14.0845L4.45058 12.523C3.62825 12.2881 3.04632 11.5563 3.00263 10.7022ZM11.6036 12.7126C11.5599 12.5596 11.4404 12.4401 11.2874 12.3964L5.00002 10.6L19 5L13.4 19L11.6036 12.7126Z" fill="#808080"/>
</svg>

<svg width="24" height="24" fill="none" xmlns="http://www.w3.org/2000/svg"><path fill-rule="evenodd" clip-rule="evenodd" d="M3.003 10.702a2 2 0 011.254-1.959l14-5.6a2 2 0 012.6 2.6l-5.6 14a2 2 0 01-3.78-.194l-1.561-5.464-5.465-1.562a2 2 0 01-1.448-1.82zm8.6 2.01a.46.46 0 00-.316-.316L5 10.6 19 5l-5.6 14-1.796-6.287z" fill="gray"/></svg>
